public/images/broadcasters/vrt.svg

<svg viewBox="0 0 41 21" xmlns="http://www.w3.org/2000/svg"><g fill="#fff"><path d="m35.364 2.64153c-.6772-.60598-1.0693-1.51588-1.1444-2.64153h-4.0823c.0288.81294.1676 1.61823.4127 2.39388.3928 1.2625 1.1156 2.39721 2.0937 3.2869.9561.85002 2.122 1.42907 3.377 1.67722.5624.115 1.135.1722 1.7091.17073h1.302v-4.08236h-1.2945c-.9531 0-1.7692-.27391-2.3658-.8086"/><path d="m27.4713 4.33188c-4.9491 0-11.2677 1.09-9.6468 15.54152h4.3901c-.1689-1.8761-.2927-3.4145-.3058-4.921 0-4.2944 1.1256-6.78956 5.4988-6.61133l.8967.03377v-3.99606c-.2945-.03377-.7392-.04502-.833-.0469z"/><path d="m13.0386 4.37878c-.6135 2.2513-1.392 4.75775-2.1669 7.08222-.5628 1.6885-1.73908 4.8778-1.73908 4.8778h-.18761c-.62474-1.6359-1.17068-3.1893-1.73913-4.8778-.79171-2.32259-1.60593-4.82904-2.21566-7.08222h-4.70897c.8236 2.58712 1.726 5.17049 2.72407 7.79892.99808 2.6284 1.96051 5.193 3.10868 7.6919h5.6789c1.1369-2.5027 2.0975-5.0654 3.1012-7.6919 1.0037-2.62655 1.9079-5.2118 2.7316-7.79892z"/><path d="m39.0243 15.3351c-.7974.3996-1.7842.6754-2.4633.6754-1.2795 0-1.9981-.454-2.2513-2.0037-.1876-1.15-.2646-3.5045-.0451-5.62821h-4.1986c-.2064 2.53271-.2195 4.09361.1107 6.30741.5196 3.4933 2.6265 5.4087 6.1554 5.3844 1.2832 0 2.3901-.2665 3.9491-1.0844z"/></g></svg>

<svg viewBox="0 0 41 21" xmlns="http://www.w3.org/2000/svg"><title>Vlaamse Radio- en Televisieomroeporganisatie</title><path d="M35.364 2.64153C34.6868 2.03555 34.2947 1.12565 34.2196 0H30.1373C30.1661 0.81294 30.3049 1.61823 30.55 2.39388C30.9428 3.65638 31.6656 4.79109 32.6437 5.68078C33.5998 6.5308 34.7657 7.10985 36.0207 7.358C36.5831 7.473 37.1557 7.5302 37.7298 7.52873H39.0318V3.44637H37.7373C36.7842 3.44637 35.9681 3.17246 35.3715 2.63777" fill="white"/><path d="M27.4713 4.33188C22.5222 4.33188 16.2036 5.42188 17.8245 19.8734H22.2146C22.0457 17.9973 21.9219 16.4589 21.9088 14.9524C21.9088 10.658 23.0344 8.16284 27.4076 8.34107L28.3043 8.37484V4.37878C28.0098 4.34501 27.5651 4.33376 27.4713 4.33188Z" fill="white"/><path d="M13.0386 4.37878C12.4251 6.63008 11.6466 9.13653 10.8717 11.461C10.3089 13.1495 9.13262 16.3388 9.13262 16.3388H8.94501C8.32027 14.7029 7.77433 13.1495 7.20588 11.461C6.41417 9.13841 5.59995 6.63196 4.99022 4.37878H0.28125C1.10485 6.9659 2.00725 9.54927 3.00532 12.1777C4.0034 14.8061 4.96583 17.3707 6.114 19.8696H11.7929C12.9298 17.3669 13.8904 14.8042 14.8941 12.1777C15.8978 9.55115 16.802 6.9659 17.6257 4.37878H13.0386Z" fill="white"/><path d="M39.0243 15.3351C38.2269 15.7347 37.2401 16.0105 36.561 16.0105C35.2815 16.0105 34.5629 15.5565 34.3097 14.0068C34.1221 12.8568 34.0451 10.5023 34.2646 8.37859H30.066C29.8596 10.9113 29.8465 12.4722 30.1767 14.686C30.6963 18.1793 32.8032 20.0947 36.3321 20.0704C37.6153 20.0704 38.7222 19.8039 40.2812 18.986L39.0243 15.3351Z" fill="white"/></svg>
